dist/images/icons/icon-phone.svg

<svg width="26" height="26" viewBox="0 0 26 26" fill="none" xmlns="http://www.w3.org/2000/svg">
<path d="M25.0106 18.4879C25.1911 18.97 25.2963 19.4879 25.3121 20.0296C25.316 20.0812 25.316 20.1327 25.316 20.1864C25.316 22.8771 23.1333 25.0598 20.4428 25.0598C9.48399 25.0598 0.600586 16.1765 0.600586 5.21748C0.600586 2.52704 2.78329 0.34436 5.47376 0.34436C5.5274 0.34436 5.57895 0.34436 5.6305 0.348234C6.17223 0.364325 6.6922 0.469511 7.17434 0.649787L9.00394 8.57091C9.00394 8.57479 9.00185 8.57687 8.99798 8.57896L5.64242 10.0867L5.63259 10.0909C7.17225 14.7796 10.8809 18.4879 15.5696 20.0278L15.5735 20.0177L17.0837 16.6604L25.0106 18.4879Z" fill="white"/>
</svg>

<svg width="26" height="26" fill="none" xmlns="http://www.w3.org/2000/svg"><path d="M25.01 18.488a4.784 4.784 0 01.306 1.698 4.874 4.874 0 01-4.873 4.874C9.484 25.06.6 16.177.6 5.217A4.874 4.874 0 017.174.65l1.83 7.92c0 .005-.002.007-.006.009l-3.356 1.508-.01.004a15.617 15.617 0 009.938 9.937l.003-.01 1.51-3.358 7.928 1.828z" fill="#fff"/></svg>
